src/pos-icons/shuriken.svg

<svg height="24" viewBox="0 0 24 24" width="24" xmlns="http://www.w3.org/2000/svg"><path d="m14.5 9.5-2.5-7.5-2.5 7.5-7.5 2.5 7.5 2.5 2.5 7.5 2.5-7.5 7.5-2.5zm-2.5 4.2c-.9 0-1.7-.7-1.7-1.7 0-.9.7-1.7 1.7-1.7.9 0 1.7.7 1.7 1.7 0 .9-.8 1.7-1.7 1.7z"/></svg>

<?xml version="1.0" encoding="UTF-8"?><!DOCTYPE svg PUBLIC "-//W3C//DTD SVG 1.1//EN" "http://www.w3.org/Graphics/SVG/1.1/DTD/svg11.dtd"><svg xmlns="http://www.w3.org/2000/svg" xmlns:xlink="http://www.w3.org/1999/xlink" version="1.1" id="mdi-shuriken" width="24" height="24" viewBox="0 0 24 24"><path d="M14.5 9.5L12 2L9.5 9.5L2 12L9.5 14.5L12 22L14.5 14.5L22 12L14.5 9.5M12 13.7C11.1 13.7 10.3 13 10.3 12C10.3 11.1 11 10.3 12 10.3C12.9 10.3 13.7 11 13.7 12C13.7 12.9 12.9 13.7 12 13.7Z" /></svg>
